icons/swift.svg

<?xml version="1.0" encoding="UTF-8" standalone="no"?>
<!DOCTYPE svg PUBLIC "-//W3C//DTD SVG 1.1//EN" "http://www.w3.org/Graphics/SVG/1.1/DTD/svg11.dtd">
<!-- Created with Vectornator (http://vectornator.io/) -->
<svg height="100%" stroke-miterlimit="10" style="fill-rule:nonzero;clip-rule:evenodd;stroke-linecap:round;stroke-linejoin:round;" version="1.1" viewBox="0 0 448 512" width="100%" xml:space="preserve" xmlns="http://www.w3.org/2000/svg" xmlns:vectornator="http://vectornator.io" xmlns:xlink="http://www.w3.org/1999/xlink">
<defs/>
<g id="Layer-1" vectornator:layerName="Layer 1">
<path d="M55.1824 75.1975C67.8093 75.1975 80.4021 75.8579 93.0338 75.8579C109.311 75.8579 125.827 75.1731 142.099 75.8579C180.252 77.4637 218.452 79.1105 256.635 80.3073C289.774 81.3459 322.765 81.0935 355.813 78.0462C367.013 77.0135 378.227 76.1866 389.304 74.1743C392.458 73.6014 395.698 73.3215 398.894 73.1155C400.026 73.0426 401.157 72.9517 402.287 72.8556C402.701 72.8205 403.924 72.6882 403.532 72.8241C393.512 76.297 399.202 99.3298 400.129 105.701C402.815 124.175 403.552 142.625 404.347 161.252C405.071 178.218 406.791 195.141 407.374 212.105C407.791 224.214 407.097 236.321 407.979 248.419C408.652 257.657 410.396 266.627 411.514 275.792C413.385 291.127 413.835 307.356 413.835 322.81C413.835 331.667 413.835 340.524 413.835 349.381C413.835 350.169 415.022 355.777 414.58 356.402C413.826 357.47 412.51 354.751 412.456 355.37C412.252 357.738 413.518 359.571 414.076 361.767C414.583 363.76 414.076 366.667 414.076 368.732C414.076 374.185 413.035 379.503 412.619 384.938C411.767 396.093 413.594 407.742 407.42 417.488C406.7 418.624 406.05 420.219 404.846 420.941C401.743 422.8 397.733 422.955 394.214 423.532C383.12 425.349 371.426 425.36 360.214 425.744C355.493 425.905 350.855 426.903 346.125 426.987C310.735 427.61 275.362 426.89 239.974 427.828C220.032 428.357 200.187 430.076 180.265 430.95C157.848 431.932 135.159 432.192 112.715 432.192C98.8075 432.192 85.3072 430.588 71.8042 427.206C67.8634 426.219 64.4345 423.949 60.5543 422.826C57.0682 421.817 44.1853 417.404 44.1853 412.491" fill="#ffffff" fill-rule="nonzero" opacity="1" stroke="none"/>
</g>
<clipPath id="ArtboardFrame">
<rect height="512" width="448" x="0" y="0"/>
</clipPath>
<g clip-path="url(#ArtboardFrame)" id="Untitled" vectornator:layerName="Untitled">
<path d="M448 156.09C448 151.58 447.92 147.09 447.8 142.57C447.68 132.712 446.817 122.878 445.22 113.15C443.552 103.411 440.445 93.9744 436 85.15C426.974 67.4276 412.565 53.0213 394.84 44C386.018 39.5489 376.581 36.4412 366.84 34.78C357.11 33.1737 347.271 32.3079 337.41 32.19C332.9 32.07 328.41 32.02 323.89 31.99L124.14 31.99C119.63 31.99 115.14 32.07 110.62 32.19C108.17 32.26 105.71 32.34 103.25 32.46C95.8543 32.757 88.4856 33.5319 81.19 34.78C73.922 36.0483 66.8113 38.0933 59.98 40.88C57.6733 41.8467 55.4033 42.8867 53.17 44C46.5793 47.3733 40.4071 51.5083 34.78 56.32C32.9 57.93 31.09 59.6 29.35 61.32C22.346 68.306 16.4903 76.3554 12 85.17C7.55276 93.9935 4.44529 103.43 2.78 113.17C1.19692 122.892 0.347851 132.72 0.24 142.57C0.11 147.08 0.06 151.57 0.03 156.09L0.03 355.92C0.03 360.43 0.11 364.92 0.24 369.43C0.359204 379.288 1.22165 389.122 2.82 398.85C4.48312 408.59 7.59069 418.027 12.04 426.85C21.0707 444.558 35.4659 458.961 53.17 468C61.9942 472.444 71.4311 475.548 81.17 477.21C90.9004 478.816 100.739 479.682 110.6 479.8C115.1 479.92 119.6 479.97 124.12 480L323.91 480C328.42 480 332.91 479.92 337.43 479.8C347.294 479.677 357.136 478.811 366.87 477.21C376.609 475.546 386.045 472.442 394.87 468C412.579 458.963 426.976 444.556 436 426.84C440.449 418.017 443.557 408.58 445.22 398.84C446.827 389.113 447.692 379.278 447.81 369.42C447.93 364.92 447.98 360.42 448.01 355.91L448.01 172.14C448 166.79 448 161.44 448 156.09ZM378.12 397.09C358.12 358.16 320.89 367.82 301.81 377.62C300.09 378.62 298.33 379.62 296.56 380.62L296.14 380.87C256.64 401.87 203.61 403.41 150.29 380.49C106.886 361.67 70.1837 330.169 45 290.12C57.2524 299.185 70.3732 307.013 84.17 313.49C140.53 339.89 197.17 337.98 237.17 313.49C180.17 269.64 132.57 212.49 96.08 166.27C89.1285 158.16 82.8478 149.498 77.3 140.37C121 180.37 190 230.59 214.78 244.49C162.21 189 115.89 120.55 118.06 122.75C200.85 206.17 277.24 253.34 277.24 253.34C280.12 254.92 282.24 256.19 283.97 257.34C285.57 253.258 286.959 249.095 288.13 244.87C301.35 196.54 286.47 141.29 252.82 95.67C329.61 141.75 375 229.34 356.4 303.42C355.96 305.15 355.45 306.82 354.96 308.51C393.48 355.91 383 406.68 378.09 397.1L378.12 397.09Z" fill="#f05135" fill-rule="nonzero" opacity="1" stroke="none" vectornator:layerName="path"/>
</g>
</svg>

<svg xmlns="http://www.w3.org/2000/svg" viewBox="0 0 448 512" fill="#ffffff" stroke="#2C2A32" stroke-width="10" stroke-linecap="round" stroke-linejoin="round"><!--! Font Awesome Pro 6.3.0 by @fontawesome - https://fontawesome.com License - https://fontawesome.com/license (Commercial License) Copyright 2023 Fonticons, Inc. --><path fill="#ffffff" d="M448 156.09c0-4.51-.08-9-.2-13.52a196.31 196.31 0 0 0-2.58-29.42 99.62 99.62 0 0 0-9.22-28A94.08 94.08 0 0 0 394.84 44a99.17 99.17 0 0 0-28-9.22 195 195 0 0 0-29.43-2.59c-4.51-.12-9-.17-13.52-.2H124.14c-4.51 0-9 .08-13.52.2-2.45.07-4.91.15-7.37.27a171.68 171.68 0 0 0-22.06 2.32 103.06 103.06 0 0 0-21.21 6.1q-3.46 1.45-6.81 3.12a94.66 94.66 0 0 0-18.39 12.32c-1.88 1.61-3.69 3.28-5.43 5A93.86 93.86 0 0 0 12 85.17a99.45 99.45 0 0 0-9.22 28 196.31 196.31 0 0 0-2.54 29.4c-.13 4.51-.18 9-.21 13.52v199.83c0 4.51.08 9 .21 13.51a196.08 196.08 0 0 0 2.58 29.42 99.3 99.3 0 0 0 9.22 28A94.31 94.31 0 0 0 53.17 468a99.47 99.47 0 0 0 28 9.21 195 195 0 0 0 29.43 2.59c4.5.12 9 .17 13.52.2H323.91c4.51 0 9-.08 13.52-.2a196.59 196.59 0 0 0 29.44-2.59 99.57 99.57 0 0 0 28-9.21A94.22 94.22 0 0 0 436 426.84a99.3 99.3 0 0 0 9.22-28 194.79 194.79 0 0 0 2.59-29.42c.12-4.5.17-9 .2-13.51V172.14c-.01-5.35-.01-10.7-.01-16.05zm-69.88 241c-20-38.93-57.23-29.27-76.31-19.47-1.72 1-3.48 2-5.25 3l-.42.25c-39.5 21-92.53 22.54-145.85-.38A234.64 234.64 0 0 1 45 290.12a230.63 230.63 0 0 0 39.17 23.37c56.36 26.4 113 24.49 153 0-57-43.85-104.6-101-141.09-147.22a197.09 197.09 0 0 1-18.78-25.9c43.7 40 112.7 90.22 137.48 104.12-52.57-55.49-98.89-123.94-96.72-121.74 82.79 83.42 159.18 130.59 159.18 130.59 2.88 1.58 5 2.85 6.73 4a127.44 127.44 0 0 0 4.16-12.47c13.22-48.33-1.66-103.58-35.31-149.2C329.61 141.75 375 229.34 356.4 303.42c-.44 1.73-.95 3.4-1.44 5.09 38.52 47.4 28.04 98.17 23.13 88.59z"/></svg>
